src/svg/24/gift_outline_24.svg

<svg width="24" height="24" viewBox="0 0 24 24" fill="none" xmlns="http://www.w3.org/2000/svg">
<path d="M12.0021 3.60908C13.4122 1.06965 16.0769 0.759825 17.6 2.2829C18.8445 3.52737 18.8653 5.53662 17.4524 7.00104L18 7C20.2091 7 22 8.79086 22 11V11.4294C22 12.4364 21.8608 12.9764 21.5993 13.4653C21.2596 14.1004 20.7249 14.558 20.0016 14.8007L20 16.8722C20 18.6553 19.8143 19.3018 19.4657 19.9537C19.1171 20.6055 18.6055 21.1171 17.9537 21.4657C17.3018 21.8143 16.6553 22 14.8722 22H9.12777C7.34473 22 6.69816 21.8143 6.04631 21.4657C5.39446 21.1171 4.88288 20.6055 4.53427 19.9537C4.18565 19.3018 4 18.6553 4 16.8722L3.99936 14.801C3.27553 14.5584 2.74054 14.1007 2.4007 13.4653C2.16103 13.0171 2.02406 12.526 2.00289 11.6717L2 11C2 8.79086 3.79086 7 6 7L6.55091 7.00104C5.13799 5.53662 5.1588 3.52737 6.40326 2.2829C7.92752 0.758645 10.5952 1.07013 12.0021 3.60908ZM11.1 15H5.799L5.801 17.1155C5.81406 17.7877 5.79625 18.4966 6.12153 19.1048C6.67024 20.1308 7.84622 20.19 8.88446 20.199H11.1V15ZM18.2 15H12.9V20.199H15.1155C16.1526 20.1788 17.329 20.1323 17.8785 19.1048C18.1013 18.6882 18.1889 18.2805 18.199 17.1155L18.2 15ZM18 8.8C16.3131 8.80023 12.9007 8.80143 12.9007 8.80143L12.9 13.199H18.524C19.0693 13.1947 19.7236 13.1558 20.012 12.6164C20.1293 12.3971 20.1877 12.1524 20.1983 11.6185L20.2 11C20.2 9.78497 19.215 8.8 18 8.8ZM6 8.8C4.78497 8.8 3.8 9.78497 3.8 11L3.80174 11.6185C3.81225 12.1524 3.87066 12.3971 3.98796 12.6164C4.27616 13.1553 4.92847 13.1945 5.47271 13.1996L11.1 13.199L11.1006 8.8013C11.1006 8.8013 7.68723 8.80023 6 8.8ZM7.67606 3.55569C6.60685 4.6249 7.59914 6.63203 10.8488 6.97462C10.942 6.98264 11.103 6.99784 11.103 6.99784C10.8434 3.5382 8.87416 2.35759 7.67606 3.55569ZM16.3272 3.55569C15.1291 2.35759 13.1599 3.5382 12.9002 6.99784C12.9002 6.99784 13.0703 6.98186 13.1545 6.97462C16.4041 6.63203 17.3964 4.6249 16.3272 3.55569Z" fill="currentColor"/>
</svg>

<svg fill="none" height="24" width="24" xmlns="http://www.w3.org/2000/svg"><path d="M12.002 3.61c1.41-2.54 4.075-2.85 5.598-1.327 1.244 1.244 1.265 3.254-.148 4.718L18 7a4 4 0 014 4v.43c0 1.006-.14 1.546-.4 2.035a2.744 2.744 0 01-1.598 1.336L20 16.872c0 1.783-.186 2.43-.534 3.082a3.635 3.635 0 01-1.512 1.512c-.652.348-1.299.534-3.082.534H9.128c-1.783 0-2.43-.186-3.082-.534s-1.163-.86-1.512-1.512C4.186 19.302 4 18.655 4 16.872v-2.071a2.744 2.744 0 01-1.6-1.336c-.239-.448-.376-.939-.397-1.793L2 11a4 4 0 014-4l.55.001c-1.411-1.464-1.39-3.474-.146-4.718 1.525-1.524 4.192-1.213 5.6 1.326zM11.1 15H5.799l.002 2.115c.013.673-.005 1.382.32 1.99.55 1.026 1.725 1.085 2.763 1.094H11.1zm7.1 0h-5.3v5.199h2.215c1.038-.02 2.214-.067 2.763-1.094.223-.417.31-.825.321-1.99zM18 8.8l-5.1.001V13.2h5.624c.545-.004 1.2-.043 1.488-.583.117-.219.176-.464.186-.997L20.2 11A2.2 2.2 0 0018 8.8zm-12 0A2.2 2.2 0 003.8 11l.002.619c.01.533.069.778.186.997.288.54.94.579 1.485.584l5.627-.001V8.801L6 8.8zm1.676-5.244C6.606 4.625 7.6 6.632 10.85 6.975l.254.023c-.26-3.46-2.229-4.64-3.427-3.442zm8.651 0C15.13 2.358 13.16 3.538 12.9 6.998l.254-.023c3.25-.343 4.242-2.35 3.173-3.42z" fill="currentColor"/></svg>
